X:1
T:Forth in the Peace of Christ We Go
T:Tune: Georg Joseph, 1657, adapt. Text under copyright; for copyrighted material see Psalter Hymnal 323
T:LM ANGELUS www.hymnary.org/text/forth_in_the_peace_of_christ_we_go
T:Forth in the Peace of Christ We Go
T:This tune is in the public domain. You may freely use this score for personal and congregational worship. If you reproduce the score, please credit Hymnary.org as the source. 
T:This tune is in the public domain. You may freely use this score for personal and congregational worship. If you reproduce the score, please credit Hymnary.org as the source. 
Z:This tune is in the public domain. You may freely use this score for personal and congregational worship. If you reproduce the score, please credit Hymnary.org as the source.
%%score ( 1 2 ) ( 3 4 )
L:1/8
M:6/4
K:D
V:1 treble nm="SOPRANO ALTO" snm="S. A."
V:2 treble 
V:3 bass nm="TENOR BASS" snm="T. B."
V:4 bass 
V:1
 D2 D2 E2 | (F2 ^G2) A2 A4 G2 | A6 A2 B2 c2 | d4 c2 B4 B2 | A6 E2 E2 F2 | G4 G2 D4 E2 |1 %6
 F6 C2 D2 E2 | F4 G2 E4 E2 | D6 x6 |] %9
V:2
 D2 D2 C2 | (D2 E2) E2 (C2 D2) D2 | E6 E2 E2 E2 | (F2 D2) E2 (F2 E2) D2 | C6 E2 E2 ^D2 | %5
 E4 E2 D4 C2 |1 C6 ^A,2 B,2 C2 | D4 D2 (D2 B,2) C2 | D6 x6 |] %9
V:3
 F,2 F,2 A,2 | (A,2 B,2) A,2 A,4 B,2 | C6 C2 B,2 A,2 | A,4 A,2 A,4 ^G,2 | A,6 C2 B,2 A,2 | %5
 B,4 B,2 B,4 B,2 |1 ^A,6 F,2 F,2 =A,2 | A,4 B,2 A,4 A,2 | F,6 x6 |] %9
V:4
 D,2 B,,2 A,,2 | D,4 C,2 F,4 E,2 | A,,6 A,2 ^G,2 A,2 | (D,2 F,2) A,2 (D,2 E,2) E,2 | %4
 A,,6 A,2 =G,2 F,2 | E,4 E,2 G,4 G,2 |1 F,6 F,2 B,,2 =A,,2 | D,4 G,,2 A,,4 A,,2 | D,6 x6 |] %9

